src/assets/twitter.svg

<svg width="22" height="17" viewBox="0 0 22 17" fill="none" xmlns="http://www.w3.org/2000/svg">
<path fill-rule="evenodd" clip-rule="evenodd" d="M22 2.01273C21.1908 2.35396 20.3211 2.58471 19.4074 2.68865C20.3397 2.15719 21.0554 1.31654 21.3923 0.314427C20.5205 0.806006 19.5539 1.16292 18.5261 1.35576C17.7031 0.521649 16.5296 0 15.2316 0C12.7387 0 10.7181 1.92186 10.7181 4.29151C10.7181 4.62816 10.7573 4.95566 10.835 5.27009C7.08331 5.09033 3.75787 3.38222 1.53175 0.785742C1.14331 1.41983 0.920563 2.15719 0.920563 2.94359C0.920563 4.43271 1.71737 5.74598 2.92806 6.51538C2.18831 6.49316 1.49256 6.30032 0.884125 5.9787C0.883438 5.99635 0.883438 6.01465 0.883438 6.0323C0.883438 8.11171 2.43925 9.84661 4.5045 10.2408C4.12569 10.3388 3.72694 10.3911 3.31512 10.3911C3.02431 10.3911 2.74175 10.3643 2.46606 10.3147C3.04013 12.0195 4.70731 13.2602 6.6825 13.2949C5.13769 14.446 3.19137 15.1317 1.07662 15.1317C0.71225 15.1317 0.353375 15.1121 0 15.0716C1.99719 16.2894 4.36975 17 6.91831 17C15.2213 17 19.7608 10.4604 19.7608 4.78963C19.7608 4.60332 19.7567 4.41833 19.7477 4.23398C20.6298 3.62932 21.395 2.87299 22 2.01273Z" fill="#FBFBFB"/>
</svg>

<svg width="100%" height="100%" viewBox="0 0 22 17" fill="none" xmlns="http://www.w3.org/2000/svg"><path fill-rule="evenodd" clip-rule="evenodd" d="M22 2.013a9.395 9.395 0 0 1-2.593.676A4.348 4.348 0 0 0 21.392.314a9.341 9.341 0 0 1-2.866 1.042A4.62 4.62 0 0 0 15.232 0c-2.493 0-4.514 1.922-4.514 4.292 0 .336.04.664.117.978C7.083 5.09 3.758 3.382 1.532.786A4.115 4.115 0 0 0 .92 2.944c0 1.489.796 2.802 2.007 3.571A4.669 4.669 0 0 1 .884 5.98v.053c0 2.08 1.555 3.815 3.62 4.209a4.744 4.744 0 0 1-2.038.074c.574 1.705 2.241 2.945 4.216 2.98a9.358 9.358 0 0 1-5.605 1.837c-.365 0-.724-.02-1.077-.06A13.257 13.257 0 0 0 6.918 17c8.303 0 12.843-6.54 12.843-12.21 0-.187-.004-.372-.013-.556A8.929 8.929 0 0 0 22 2.013Z" fill="currentColor"/></svg>
